X:1175
T:Lord Falconberg's March.
M:C
L:1/8
Q:1/2=76
V:1
V:2 merge down
V:3
I: |: :: ::
N:last note in each voice printed as a crotchet
Z:Jack Campin * www.campin.me.uk * 2009
K:D
[V:1] A|:d3e   f2 ed| e3 f  g2 fe|f3 g  a2d2 |fedc    dAFA|
[V:2] x|:x8         | x8         |x8         |x4      d3 A|
[V:3] A|:F3G   A2 AF| c3 d  e2 dc|d3 e  f2A2 |AGFE    F2A2|
%
[V:1]    d3e   f2 ed| e3 f  g2 fe|f3 g  a2d2 |fedc {c}d4 :|
[V:2]    x8         | x8         |x8         |x8         :|
[V:3]    F3G   A2 AF| c3 d  e2 c2|d3 e  f2A2 |AGFE {E}F4 :|
%
[V:1]    a3g   f2 f2| g3 f  e2 e2|f3 e  def^g|a2A>A   A4  |
[V:2]    x8         | x8         |x8         |x8          |
[V:3]    f3e   d2 d2| e3 d  c2 A2|d3 A  F2dB |c2c>c   c4  |
%
[V:1]   (f2d2) B2 g2|(e2c2) A2 a2|b2g2  fedc |d2d>d   d4 :|
[V:2]    x8         | x8         |x8         |x8         :|
[V:3]    d2(f2 d2)c2| c2(e2 c2)c2|d2B2  AGFE |F2F>F   F4 :|
<end>
<start>
